public/assets/logos/software/framer.svg

<svg fill="none" height="10" viewBox="0 0 10 10" width="10" xmlns="http://www.w3.org/2000/svg" xmlns:xlink="http://www.w3.org/1999/xlink"><clipPath id="a"><path d="m0 0h10v10h-10z"/></clipPath><g clip-path="url(#a)"><path d="m1.66663-.00000381h6.66667v3.33333381h-3.33333zm0 3.33333381h3.33334l3.33333 3.33333h-6.66667zm0 3.33333h3.33334v3.33334z" fill="#000"/></g></svg>

<svg width="10" height="10" viewBox="0 0 10 10" fill="none" xmlns="http://www.w3.org/2000/svg">
<g clip-path="url(#clip0_9_36)">
<path d="M1.66663 -3.8147e-06H8.3333V3.33333H4.99997L1.66663 -3.8147e-06ZM1.66663 3.33333H4.99997L8.3333 6.66666H1.66663V3.33333ZM1.66663 6.66666H4.99997V10L1.66663 6.66666Z" fill="black"/>
</g>
<defs>
<clipPath id="clip0_9_36">
<rect width="10" height="10" fill="white"/>
</clipPath>
</defs>
</svg>
